!!!COM:	Bach, Johann Sebastian
!!!CDT:	1685/02/21/-1750/07/28/
!!!OTL@@DE:	Nun sich der Tag geendet hat
!!!SCT:	BWV 396
!!!PC#:	240
!!!AGN:	chorale
**kern	**kern	**kern	**kern
*ICvox	*ICvox	*ICvox	*ICvox
*Ibass	*Itenor	*Ialto	*Isoprn
*I"Bass	*I"Tenor	*I"Alto	*I"Soprano
*clefF4	*clefGv2	*clefG2	*clefG2
*k[]	*k[]	*k[]	*k[]
*a:	*a:	*a:	*a:
*M4/4	*M4/4	*M4/4	*M4/4
*met(c)	*met(c)	*met(c)	*met(c)
*MM100	*MM100	*MM100	*MM100
8AAL	4c	4a	4ee
8BBJ	.	.	.
=1	=1	=1	=1
8CL	4c	4e	4a
8BB	.	.	.
8AA	[4B	4e	4b
8GG#J	.	.	.
4AA	8BL]	8eL	4cc
.	8AJ	8fJ	.
4EE	8GL	4gnX	4cc
.	[8cJ	.	.
=2	=2	=2	=2
4FF	8cL]	4a	4dd
.	16BL	.	.
.	16AJJ	.	.
4GG	4B	4g	4dd
4CC;	4c;	4g;	4ee;
4C	[4c	4g	4ee
=3	=3	=3	=3
4FF#	4c]	4a	4dd
4GG#	2B	4e	4ee
8AAL	.	4e	4cc
8BB	.	.	.
8C	[4A	4e	4cc
8DJ	.	.	.
=4	=4	=4	=4
2E;	4A]	2e;	2b;
.	4G#;	.	.
4r	4ry	4ry	4r
4GG#X	4e	[4b	4ee
=5	=5	=5	=5
4AA	4e	8bL]	4cc
.	.	8aJ	.
8EL	4e	4g#	4b
8DJ	.	.	.
4C	4e	8aL	4cc
.	.	8gJ	.
8DL	[4d	[4f	4a
8CJ	.	.	.
=6	=6	=6	=6
8BBL	8dL]	8fL]	4g#
8EJ	8BJ	8eJ	.
8CL	4c	8eL	4a
8AAJ	.	8f#J	.
4E;	4B;	4g#;	4b;
4C	4A	[4a	4ee
=7	=7	=7	=7
4BB	4d	8aL]	4dd
.	.	8g#J	.
4AA	4e	4a	4cc
4D	8fnXL	4a	4.b
.	8dJ	.	.
4E	8BL	4g#	.
.	16eL	.	8b
.	16dJJ	.	.
=8	=8	=8	=8
2.AA;	2.c#;	2.e;	2.a;
==	==	==	==
*-	*-	*-	*-
!!!hum2abc: -Q ''
!!!title: @{PC#}. @{OTL@@DE}
!!!YOR1: 371 vierstimmige Choralges&auml;nge von Johann Sebastian Bach, 
!!!YOR2: 4th ed. by Alfred D&ouml;rffel (Leipzig: Breitkopf und H&auml;rtel, 
!!!YOR2: c.1875). 178 pp. Plate "V.A.10".  reprint: J.S. Bach, 371 Four-Part 
!!!YOR4: Chorales (New York: Associated Music Publishers, Inc., c.1940).
!!!SMS: B&H, 4th ed, Alfred D&ouml;rffel, c.1875, plate V.A.10
!!!EED:  Craig Stuart Sapp
!!!EEV:  2009/05/22
